images/3232632.svg

<?xml version="1.0" encoding="UTF-8"?>
<svg xmlns="http://www.w3.org/2000/svg" xmlns:xlink="http://www.w3.org/1999/xlink" width="300pt" height="300pt" viewBox="0 0 300 300" version="1.1">
<defs>
<g>
<symbol overflow="visible" id="glyph0-0">
<path style="stroke:none;" d="M 0.453125 1.59375 L 0.453125 -6.34375 L 4.953125 -6.34375 L 4.953125 1.59375 Z M 0.953125 1.09375 L 4.453125 1.09375 L 4.453125 -5.84375 L 0.953125 -5.84375 Z M 0.953125 1.09375 "/>
</symbol>
<symbol overflow="visible" id="glyph0-1">
<path style="stroke:none;" d="M 0.890625 -6.5625 L 2.078125 -6.5625 L 4.984375 -1.078125 L 4.984375 -6.5625 L 5.84375 -6.5625 L 5.84375 0 L 4.65625 0 L 1.75 -5.484375 L 1.75 0 L 0.890625 0 Z M 0.890625 -6.5625 "/>
</symbol>
<symbol overflow="visible" id="glyph0-2">
<path style="stroke:none;" d="M 3.546875 -5.953125 C 2.898438 -5.953125 2.382812 -5.710938 2 -5.234375 C 1.625 -4.753906 1.4375 -4.101562 1.4375 -3.28125 C 1.4375 -2.445312 1.625 -1.789062 2 -1.3125 C 2.382812 -0.832031 2.898438 -0.59375 3.546875 -0.59375 C 4.191406 -0.59375 4.703125 -0.832031 5.078125 -1.3125 C 5.453125 -1.789062 5.640625 -2.445312 5.640625 -3.28125 C 5.640625 -4.101562 5.453125 -4.753906 5.078125 -5.234375 C 4.703125 -5.710938 4.191406 -5.953125 3.546875 -5.953125 Z M 3.546875 -6.6875 C 4.460938 -6.6875 5.195312 -6.375 5.75 -5.75 C 6.300781 -5.132812 6.578125 -4.3125 6.578125 -3.28125 C 6.578125 -2.238281 6.300781 -1.410156 5.75 -0.796875 C 5.195312 -0.179688 4.460938 0.125 3.546875 0.125 C 2.617188 0.125 1.878906 -0.179688 1.328125 -0.796875 C 0.773438 -1.410156 0.5 -2.238281 0.5 -3.28125 C 0.5 -4.3125 0.773438 -5.132812 1.328125 -5.75 C 1.878906 -6.375 2.617188 -6.6875 3.546875 -6.6875 Z M 3.546875 -6.6875 "/>
</symbol>
<symbol overflow="visible" id="glyph0-3">
<path style="stroke:none;" d="M 0.890625 -6.5625 L 1.765625 -6.5625 L 1.765625 -3.875 L 5 -3.875 L 5 -6.5625 L 5.890625 -6.5625 L 5.890625 0 L 5 0 L 5 -3.125 L 1.765625 -3.125 L 1.765625 0 L 0.890625 0 Z M 0.890625 -6.5625 "/>
</symbol>
</g>
</defs>
<g id="surface28889">
<rect x="0" y="0" width="300" height="300" style="fill:rgb(100%,100%,100%);fill-opacity:1;stroke:none;"/>
<path style="fill:none;stroke-width:1.2;stroke-linecap:butt;stroke-linejoin:miter;stroke:rgb(0%,0%,0%);stroke-opacity:1;stroke-miterlimit:10;" d="M 48.660156 67.9375 L 55.210938 75.589844 "/>
<path style="fill:none;stroke-width:1.2;stroke-linecap:butt;stroke-linejoin:miter;stroke:rgb(0%,0%,100%);stroke-opacity:1;stroke-miterlimit:10;" d="M 55.210938 75.589844 L 61.757812 83.242188 "/>
<path style="fill:none;stroke-width:1.2;stroke-linecap:butt;stroke-linejoin:miter;stroke:rgb(0%,0%,100%);stroke-opacity:1;stroke-miterlimit:10;" d="M 61.757812 83.242188 L 71.660156 81.398438 "/>
<path style="fill:none;stroke-width:1.2;stroke-linecap:butt;stroke-linejoin:miter;stroke:rgb(0%,0%,0%);stroke-opacity:1;stroke-miterlimit:10;" d="M 71.660156 81.398438 L 81.5625 79.550781 "/>
<path style="fill:none;stroke-width:1.2;stroke-linecap:butt;stroke-linejoin:miter;stroke:rgb(0%,0%,100%);stroke-opacity:1;stroke-miterlimit:10;" d="M 61.757812 83.242188 L 58.40625 92.742188 "/>
<path style="fill:none;stroke-width:1.2;stroke-linecap:butt;stroke-linejoin:miter;stroke:rgb(0%,0%,0%);stroke-opacity:1;stroke-miterlimit:10;" d="M 58.40625 92.742188 L 55.054688 102.238281 "/>
<path style=" stroke:none;fill-rule:nonzero;fill:rgb(100%,100%,100%);fill-opacity:1;" d="M 58.757812 77.742188 L 65.757812 77.742188 L 65.757812 88.742188 L 58.757812 88.742188 Z M 58.757812 77.742188 "/>
<g style="fill:rgb(0%,0%,100%);fill-opacity:1;">
  <use xlink:href="#glyph0-1" x="58.757812" y="86.405273"/>
</g>
<path style="fill:none;stroke-width:1.2;stroke-linecap:butt;stroke-linejoin:miter;stroke:rgb(0%,0%,0%);stroke-opacity:1;stroke-miterlimit:10;" d="M 54.621094 99.910156 L 44.71875 101.753906 "/>
<path style="fill:none;stroke-width:1.2;stroke-linecap:butt;stroke-linejoin:miter;stroke:rgb(100%,0%,0%);stroke-opacity:1;stroke-miterlimit:10;" d="M 44.71875 101.753906 L 34.816406 103.601562 "/>
<path style="fill:none;stroke-width:1.2;stroke-linecap:butt;stroke-linejoin:miter;stroke:rgb(0%,0%,0%);stroke-opacity:1;stroke-miterlimit:10;" d="M 55.488281 104.570312 L 45.585938 106.414062 "/>
<path style="fill:none;stroke-width:1.2;stroke-linecap:butt;stroke-linejoin:miter;stroke:rgb(100%,0%,0%);stroke-opacity:1;stroke-miterlimit:10;" d="M 45.585938 106.414062 L 35.683594 108.261719 "/>
<path style="fill:none;stroke-width:1.2;stroke-linecap:butt;stroke-linejoin:miter;stroke:rgb(0%,0%,0%);stroke-opacity:1;stroke-miterlimit:10;" d="M 55.054688 102.238281 L 68.152344 117.542969 "/>
<path style=" stroke:none;fill-rule:nonzero;fill:rgb(100%,100%,100%);fill-opacity:1;" d="M 27.25 100.433594 L 35.25 100.433594 L 35.25 111.433594 L 27.25 111.433594 Z M 27.25 100.433594 "/>
<g style="fill:rgb(100%,0%,0%);fill-opacity:1;">
  <use xlink:href="#glyph0-2" x="27.25" y="109.09668"/>
</g>
<path style="fill:none;stroke-width:1.2;stroke-linecap:butt;stroke-linejoin:miter;stroke:rgb(0%,0%,0%);stroke-opacity:1;stroke-miterlimit:10;" d="M 68.152344 117.542969 L 87.957031 113.851562 "/>
<path style="fill:none;stroke-width:1.2;stroke-linecap:butt;stroke-linejoin:miter;stroke:rgb(0%,0%,0%);stroke-opacity:1;stroke-miterlimit:10;" d="M 71.003906 121.835938 L 86.84375 118.882812 "/>
<path style="fill:none;stroke-width:1.2;stroke-linecap:butt;stroke-linejoin:miter;stroke:rgb(0%,0%,0%);stroke-opacity:1;stroke-miterlimit:10;" d="M 61.449219 136.542969 L 68.152344 117.542969 "/>
<path style="fill:none;stroke-width:1.2;stroke-linecap:butt;stroke-linejoin:miter;stroke:rgb(0%,0%,0%);stroke-opacity:1;stroke-miterlimit:10;" d="M 87.957031 113.851562 L 101.054688 129.15625 "/>
<path style="fill:none;stroke-width:1.2;stroke-linecap:butt;stroke-linejoin:miter;stroke:rgb(0%,0%,0%);stroke-opacity:1;stroke-miterlimit:10;" d="M 101.054688 129.15625 L 94.351562 148.152344 "/>
<path style="fill:none;stroke-width:1.2;stroke-linecap:butt;stroke-linejoin:miter;stroke:rgb(0%,0%,0%);stroke-opacity:1;stroke-miterlimit:10;" d="M 95.917969 129.480469 L 90.550781 144.675781 "/>
<path style="fill:none;stroke-width:1.2;stroke-linecap:butt;stroke-linejoin:miter;stroke:rgb(0%,0%,0%);stroke-opacity:1;stroke-miterlimit:10;" d="M 94.351562 148.152344 L 74.546875 151.847656 "/>
<path style="fill:none;stroke-width:1.2;stroke-linecap:butt;stroke-linejoin:miter;stroke:rgb(0%,0%,0%);stroke-opacity:1;stroke-miterlimit:10;" d="M 94.351562 148.152344 L 107.449219 163.457031 "/>
<path style="fill:none;stroke-width:1.2;stroke-linecap:butt;stroke-linejoin:miter;stroke:rgb(0%,0%,0%);stroke-opacity:1;stroke-miterlimit:10;" d="M 74.546875 151.847656 L 61.449219 136.542969 "/>
<path style="fill:none;stroke-width:1.2;stroke-linecap:butt;stroke-linejoin:miter;stroke:rgb(0%,0%,0%);stroke-opacity:1;stroke-miterlimit:10;" d="M 76.839844 147.234375 L 66.359375 134.988281 "/>
<path style="fill:none;stroke-width:1.2;stroke-linecap:butt;stroke-linejoin:miter;stroke:rgb(0%,0%,0%);stroke-opacity:1;stroke-miterlimit:10;" d="M 107.449219 163.457031 L 104.097656 172.957031 "/>
<path style="fill:none;stroke-width:1.2;stroke-linecap:butt;stroke-linejoin:miter;stroke:rgb(0%,0%,100%);stroke-opacity:1;stroke-miterlimit:10;" d="M 104.097656 172.957031 L 100.746094 182.457031 "/>
<path style="fill:none;stroke-width:1.2;stroke-linecap:butt;stroke-linejoin:miter;stroke:rgb(0%,0%,0%);stroke-opacity:1;stroke-miterlimit:10;" d="M 111.25 166.9375 L 108.570312 174.535156 "/>
<path style="fill:none;stroke-width:1.2;stroke-linecap:butt;stroke-linejoin:miter;stroke:rgb(0%,0%,100%);stroke-opacity:1;stroke-miterlimit:10;" d="M 108.570312 174.535156 L 105.886719 182.132812 "/>
<path style="fill:none;stroke-width:1.2;stroke-linecap:butt;stroke-linejoin:miter;stroke:rgb(0%,0%,100%);stroke-opacity:1;stroke-miterlimit:10;" d="M 127.253906 159.765625 L 117.351562 161.613281 "/>
<path style="fill:none;stroke-width:1.2;stroke-linecap:butt;stroke-linejoin:miter;stroke:rgb(0%,0%,0%);stroke-opacity:1;stroke-miterlimit:10;" d="M 117.351562 161.613281 L 107.449219 163.457031 "/>
<path style="fill:none;stroke-width:1.2;stroke-linecap:butt;stroke-linejoin:miter;stroke:rgb(0%,0%,100%);stroke-opacity:1;stroke-miterlimit:10;" d="M 100.746094 182.457031 L 107.296875 190.109375 "/>
<path style="fill:none;stroke-width:1.2;stroke-linecap:butt;stroke-linejoin:miter;stroke:rgb(0%,0%,0%);stroke-opacity:1;stroke-miterlimit:10;" d="M 107.296875 190.109375 L 113.84375 197.761719 "/>
<path style=" stroke:none;fill-rule:nonzero;fill:rgb(100%,100%,100%);fill-opacity:1;" d="M 97.746094 176.957031 L 104.746094 176.957031 L 104.746094 187.957031 L 97.746094 187.957031 Z M 97.746094 176.957031 "/>
<g style="fill:rgb(0%,0%,100%);fill-opacity:1;">
  <use xlink:href="#glyph0-1" x="97.746094" y="185.620117"/>
</g>
<path style="fill:none;stroke-width:1.2;stroke-linecap:butt;stroke-linejoin:miter;stroke:rgb(0%,0%,0%);stroke-opacity:1;stroke-miterlimit:10;" d="M 113.84375 197.761719 L 107.140625 216.757812 "/>
<path style="fill:none;stroke-width:1.2;stroke-linecap:butt;stroke-linejoin:miter;stroke:rgb(0%,0%,0%);stroke-opacity:1;stroke-miterlimit:10;" d="M 117.644531 201.238281 L 112.28125 216.433594 "/>
<path style="fill:none;stroke-width:1.2;stroke-linecap:butt;stroke-linejoin:miter;stroke:rgb(0%,0%,0%);stroke-opacity:1;stroke-miterlimit:10;" d="M 133.648438 194.066406 L 113.84375 197.761719 "/>
<path style="fill:none;stroke-width:1.2;stroke-linecap:butt;stroke-linejoin:miter;stroke:rgb(0%,0%,0%);stroke-opacity:1;stroke-miterlimit:10;" d="M 107.140625 216.757812 L 120.238281 232.0625 "/>
<path style="fill:none;stroke-width:1.2;stroke-linecap:butt;stroke-linejoin:miter;stroke:rgb(0%,0%,0%);stroke-opacity:1;stroke-miterlimit:10;" d="M 120.238281 232.0625 L 140.042969 228.371094 "/>
<path style="fill:none;stroke-width:1.2;stroke-linecap:butt;stroke-linejoin:miter;stroke:rgb(0%,0%,0%);stroke-opacity:1;stroke-miterlimit:10;" d="M 121.351562 227.03125 L 137.195312 224.078125 "/>
<path style="fill:none;stroke-width:1.2;stroke-linecap:butt;stroke-linejoin:miter;stroke:rgb(0%,0%,0%);stroke-opacity:1;stroke-miterlimit:10;" d="M 140.042969 228.371094 L 146.75 209.375 "/>
<path style="fill:none;stroke-width:1.2;stroke-linecap:butt;stroke-linejoin:miter;stroke:rgb(0%,0%,0%);stroke-opacity:1;stroke-miterlimit:10;" d="M 146.75 209.375 L 133.648438 194.066406 "/>
<path style="fill:none;stroke-width:1.2;stroke-linecap:butt;stroke-linejoin:miter;stroke:rgb(0%,0%,0%);stroke-opacity:1;stroke-miterlimit:10;" d="M 141.835938 210.925781 L 131.359375 198.679688 "/>
<path style="fill:none;stroke-width:1.2;stroke-linecap:butt;stroke-linejoin:miter;stroke:rgb(0%,0%,0%);stroke-opacity:1;stroke-miterlimit:10;" d="M 133.648438 194.066406 L 140.355469 175.070312 "/>
<path style="fill:none;stroke-width:1.2;stroke-linecap:butt;stroke-linejoin:miter;stroke:rgb(0%,0%,0%);stroke-opacity:1;stroke-miterlimit:10;" d="M 140.355469 175.070312 L 133.804688 167.417969 "/>
<path style="fill:none;stroke-width:1.2;stroke-linecap:butt;stroke-linejoin:miter;stroke:rgb(0%,0%,100%);stroke-opacity:1;stroke-miterlimit:10;" d="M 133.804688 167.417969 L 127.253906 159.765625 "/>
<path style="fill:none;stroke-width:1.2;stroke-linecap:butt;stroke-linejoin:miter;stroke:rgb(0%,0%,0%);stroke-opacity:1;stroke-miterlimit:10;" d="M 135.441406 176.625 L 130.203125 170.5 "/>
<path style="fill:none;stroke-width:1.2;stroke-linecap:butt;stroke-linejoin:miter;stroke:rgb(0%,0%,100%);stroke-opacity:1;stroke-miterlimit:10;" d="M 130.203125 170.5 L 124.964844 164.378906 "/>
<path style="fill:none;stroke-width:1.2;stroke-linecap:butt;stroke-linejoin:miter;stroke:rgb(0%,0%,0%);stroke-opacity:1;stroke-miterlimit:10;" d="M 140.355469 175.070312 L 150.257812 173.226562 "/>
<path style="fill:none;stroke-width:1.2;stroke-linecap:butt;stroke-linejoin:miter;stroke:rgb(0%,0%,100%);stroke-opacity:1;stroke-miterlimit:10;" d="M 150.257812 173.226562 L 160.15625 171.378906 "/>
<path style=" stroke:none;fill-rule:nonzero;fill:rgb(100%,100%,100%);fill-opacity:1;" d="M 124.253906 154.265625 L 131.253906 154.265625 L 131.253906 165.265625 L 124.253906 165.265625 Z M 124.253906 154.265625 "/>
<g style="fill:rgb(0%,0%,100%);fill-opacity:1;">
  <use xlink:href="#glyph0-1" x="124.253906" y="162.928711"/>
</g>
<path style="fill:none;stroke-width:1.2;stroke-linecap:butt;stroke-linejoin:miter;stroke:rgb(0%,0%,100%);stroke-opacity:1;stroke-miterlimit:10;" d="M 160.15625 171.378906 L 163.511719 161.882812 "/>
<path style="fill:none;stroke-width:1.2;stroke-linecap:butt;stroke-linejoin:miter;stroke:rgb(0%,0%,0%);stroke-opacity:1;stroke-miterlimit:10;" d="M 163.511719 161.882812 L 166.863281 152.382812 "/>
<path style=" stroke:none;fill-rule:nonzero;fill:rgb(100%,100%,100%);fill-opacity:1;" d="M 153.15625 165.878906 L 167.15625 165.878906 L 167.15625 176.878906 L 153.15625 176.878906 Z M 153.15625 165.878906 "/>
<g style="fill:rgb(0%,0%,100%);fill-opacity:1;">
  <use xlink:href="#glyph0-1" x="153.15625" y="174.541992"/>
  <use xlink:href="#glyph0-3" x="160.133789" y="174.541992"/>
</g>
<path style="fill:none;stroke-width:1.2;stroke-linecap:butt;stroke-linejoin:miter;stroke:rgb(0%,0%,0%);stroke-opacity:1;stroke-miterlimit:10;" d="M 166.863281 152.382812 L 186.667969 148.691406 "/>
<path style="fill:none;stroke-width:1.2;stroke-linecap:butt;stroke-linejoin:miter;stroke:rgb(0%,0%,0%);stroke-opacity:1;stroke-miterlimit:10;" d="M 186.667969 148.691406 L 193.371094 129.695312 "/>
<path style="fill:none;stroke-width:1.2;stroke-linecap:butt;stroke-linejoin:miter;stroke:rgb(0%,0%,0%);stroke-opacity:1;stroke-miterlimit:10;" d="M 193.371094 129.695312 L 181.945312 113.105469 "/>
<path style="fill:none;stroke-width:1.2;stroke-linecap:butt;stroke-linejoin:miter;stroke:rgb(0%,0%,0%);stroke-opacity:1;stroke-miterlimit:10;" d="M 196.132812 125.347656 L 186.988281 112.074219 "/>
<path style="fill:none;stroke-width:1.2;stroke-linecap:butt;stroke-linejoin:miter;stroke:rgb(0%,0%,0%);stroke-opacity:1;stroke-miterlimit:10;" d="M 212.679688 123.953125 L 193.371094 129.695312 "/>
<path style="fill:none;stroke-width:1.2;stroke-linecap:butt;stroke-linejoin:miter;stroke:rgb(0%,0%,0%);stroke-opacity:1;stroke-miterlimit:10;" d="M 181.945312 113.105469 L 188.066406 105.105469 "/>
<path style="fill:none;stroke-width:1.2;stroke-linecap:butt;stroke-linejoin:miter;stroke:rgb(0%,0%,100%);stroke-opacity:1;stroke-miterlimit:10;" d="M 188.066406 105.105469 L 194.191406 97.109375 "/>
<path style="fill:none;stroke-width:1.2;stroke-linecap:butt;stroke-linejoin:miter;stroke:rgb(0%,0%,100%);stroke-opacity:1;stroke-miterlimit:10;" d="M 194.191406 97.109375 L 203.6875 100.460938 "/>
<path style="fill:none;stroke-width:1.2;stroke-linecap:butt;stroke-linejoin:miter;stroke:rgb(0%,0%,0%);stroke-opacity:1;stroke-miterlimit:10;" d="M 203.6875 100.460938 L 213.1875 103.8125 "/>
<path style=" stroke:none;fill-rule:nonzero;fill:rgb(100%,100%,100%);fill-opacity:1;" d="M 187.191406 91.609375 L 201.191406 91.609375 L 201.191406 102.609375 L 187.191406 102.609375 Z M 187.191406 91.609375 "/>
<g style="fill:rgb(0%,0%,100%);fill-opacity:1;">
  <use xlink:href="#glyph0-1" x="187.191406" y="100.272461"/>
  <use xlink:href="#glyph0-3" x="194.168945" y="100.272461"/>
</g>
<path style="fill:none;stroke-width:1.2;stroke-linecap:butt;stroke-linejoin:miter;stroke:rgb(0%,0%,0%);stroke-opacity:1;stroke-miterlimit:10;" d="M 213.1875 103.8125 L 212.679688 123.953125 "/>
<path style="fill:none;stroke-width:1.2;stroke-linecap:butt;stroke-linejoin:miter;stroke:rgb(0%,0%,0%);stroke-opacity:1;stroke-miterlimit:10;" d="M 217.875 105.945312 L 217.46875 122.058594 "/>
<path style="fill:none;stroke-width:1.2;stroke-linecap:butt;stroke-linejoin:miter;stroke:rgb(0%,0%,0%);stroke-opacity:1;stroke-miterlimit:10;" d="M 230.882812 94.183594 L 213.1875 103.8125 "/>
<path style="fill:none;stroke-width:1.2;stroke-linecap:butt;stroke-linejoin:miter;stroke:rgb(0%,0%,0%);stroke-opacity:1;stroke-miterlimit:10;" d="M 212.679688 123.953125 L 229.867188 134.460938 "/>
<path style="fill:none;stroke-width:1.2;stroke-linecap:butt;stroke-linejoin:miter;stroke:rgb(0%,0%,0%);stroke-opacity:1;stroke-miterlimit:10;" d="M 229.867188 134.460938 L 247.5625 124.828125 "/>
<path style="fill:none;stroke-width:1.2;stroke-linecap:butt;stroke-linejoin:miter;stroke:rgb(0%,0%,0%);stroke-opacity:1;stroke-miterlimit:10;" d="M 229.371094 129.335938 L 243.527344 121.628906 "/>
<path style="fill:none;stroke-width:1.2;stroke-linecap:butt;stroke-linejoin:miter;stroke:rgb(0%,0%,0%);stroke-opacity:1;stroke-miterlimit:10;" d="M 247.5625 124.828125 L 248.070312 104.691406 "/>
<path style="fill:none;stroke-width:1.2;stroke-linecap:butt;stroke-linejoin:miter;stroke:rgb(0%,0%,0%);stroke-opacity:1;stroke-miterlimit:10;" d="M 247.5625 124.828125 L 256.15625 130.082031 "/>
<path style="fill:none;stroke-width:1.2;stroke-linecap:butt;stroke-linejoin:miter;stroke:rgb(100%,0%,0%);stroke-opacity:1;stroke-miterlimit:10;" d="M 256.15625 130.082031 L 264.75 135.335938 "/>
<path style="fill:none;stroke-width:1.2;stroke-linecap:butt;stroke-linejoin:miter;stroke:rgb(0%,0%,0%);stroke-opacity:1;stroke-miterlimit:10;" d="M 248.070312 104.691406 L 230.882812 94.183594 "/>
<path style="fill:none;stroke-width:1.2;stroke-linecap:butt;stroke-linejoin:miter;stroke:rgb(0%,0%,0%);stroke-opacity:1;stroke-miterlimit:10;" d="M 243.878906 107.683594 L 230.128906 99.277344 "/>
<path style="fill:none;stroke-width:1.2;stroke-linecap:butt;stroke-linejoin:miter;stroke:rgb(100%,0%,0%);stroke-opacity:1;stroke-miterlimit:10;" d="M 264.75 135.335938 L 264.496094 145.40625 "/>
<path style="fill:none;stroke-width:1.2;stroke-linecap:butt;stroke-linejoin:miter;stroke:rgb(0%,0%,0%);stroke-opacity:1;stroke-miterlimit:10;" d="M 264.496094 145.40625 L 264.242188 155.476562 "/>
<path style=" stroke:none;fill-rule:nonzero;fill:rgb(100%,100%,100%);fill-opacity:1;" d="M 260.75 129.835938 L 268.75 129.835938 L 268.75 140.835938 L 260.75 140.835938 Z M 260.75 129.835938 "/>
<g style="fill:rgb(100%,0%,0%);fill-opacity:1;">
  <use xlink:href="#glyph0-2" x="260.75" y="138.499023"/>
</g>
</g>
</svg>

<svg xmlns="http://www.w3.org/2000/svg" xmlns:xlink="http://www.w3.org/1999/xlink" width="300pt" height="300pt" viewBox="0 0 300 300"><defs><symbol overflow="visible"><path d="M.453 1.594v-7.938h4.5v7.938zm.5-.5h3.5v-6.938h-3.5zm0 0"/></symbol><symbol overflow="visible" id="a"><path d="M.89-6.563H2.08l2.906 5.485v-5.484h.86V0H4.656L1.75-5.484V0H.89zm0 0"/></symbol><symbol overflow="visible" id="b"><path d="M3.547-5.953c-.65 0-1.164.242-1.547.72-.375.48-.563 1.13-.563 1.952 0 .835.188 1.49.563 1.967.383.48.898.72 1.547.72.644 0 1.156-.24 1.53-.72.376-.476.564-1.132.564-1.968 0-.822-.187-1.474-.562-1.954-.375-.477-.887-.72-1.53-.72zm0-.734c.914 0 1.648.312 2.203.937.55.617.828 1.438.828 2.47 0 1.042-.277 1.87-.828 2.483-.555.617-1.29.922-2.203.922-.93 0-1.668-.305-2.22-.922C.774-1.41.5-2.237.5-3.28c0-1.033.273-1.853.828-2.47.55-.625 1.29-.938 2.22-.938zm0 0"/></symbol><symbol overflow="visible" id="c"><path d="M.89-6.563h.876v2.688H5v-2.688h.89V0H5v-3.125H1.766V0H.89zm0 0"/></symbol></defs><g><path fill="#fff" d="M0 0h300v300H0z"/><path d="M48.66 67.938l6.55 7.652" stroke-width="1.2" stroke="#000" stroke-miterlimit="10" fill="none"/><path d="M55.21 75.59l6.548 7.652M61.758 83.242l9.902-1.844" stroke-width="1.2" stroke="#00f" stroke-miterlimit="10" fill="none"/><path d="M71.66 81.398l9.903-1.847" stroke-width="1.2" stroke="#000" stroke-miterlimit="10" fill="none"/><path d="M61.758 83.242l-3.352 9.5" stroke-width="1.2" stroke="#00f" stroke-miterlimit="10" fill="none"/><path d="M58.406 92.742l-3.35 9.496" stroke-width="1.2" stroke="#000" stroke-miterlimit="10" fill="none"/><path d="M58.758 77.742h7v11h-7zm0 0" fill="#fff"/><use xlink:href="#a" x="58.758" y="86.405" fill="#00f"/><path d="M54.62 99.91l-9.9 1.844" stroke-width="1.2" stroke="#000" stroke-miterlimit="10" fill="none"/><path d="M44.72 101.754l-9.904 1.848" stroke-width="1.2" stroke="#f00" stroke-miterlimit="10" fill="none"/><path d="M55.488 104.57l-9.902 1.844" stroke-width="1.2" stroke="#000" stroke-miterlimit="10" fill="none"/><path d="M45.586 106.414l-9.902 1.848" stroke-width="1.2" stroke="#f00" stroke-miterlimit="10" fill="none"/><path d="M55.055 102.238l13.097 15.305" stroke-width="1.2" stroke="#000" stroke-miterlimit="10" fill="none"/><path d="M27.25 100.434h8v11h-8zm0 0" fill="#fff"/><use xlink:href="#b" x="27.25" y="109.097" fill="#f00"/><path d="M68.152 117.543l19.805-3.69M71.004 121.836l15.84-2.953M61.45 136.543l6.702-19M87.957 113.852l13.098 15.304M101.055 129.156l-6.703 18.996M95.918 129.48l-5.367 15.196M94.352 148.152l-19.805 3.696M94.352 148.152l13.097 15.305M74.547 151.848L61.45 136.543M76.84 147.234l-10.48-12.246M107.45 163.457l-3.352 9.5" stroke-width="1.2" stroke="#000" stroke-miterlimit="10" fill="none"/><path d="M104.098 172.957l-3.352 9.5" stroke-width="1.2" stroke="#00f" stroke-miterlimit="10" fill="none"/><path d="M111.25 166.938l-2.68 7.597" stroke-width="1.2" stroke="#000" stroke-miterlimit="10" fill="none"/><path d="M108.57 174.535l-2.683 7.598M127.254 159.766l-9.902 1.847" stroke-width="1.2" stroke="#00f" stroke-miterlimit="10" fill="none"/><path d="M117.352 161.613l-9.903 1.844" stroke-width="1.2" stroke="#000" stroke-miterlimit="10" fill="none"/><path d="M100.746 182.457l6.55 7.652" stroke-width="1.2" stroke="#00f" stroke-miterlimit="10" fill="none"/><path d="M107.297 190.11l6.547 7.652" stroke-width="1.2" stroke="#000" stroke-miterlimit="10" fill="none"/><path d="M97.746 176.957h7v11h-7zm0 0" fill="#fff"/><use xlink:href="#a" x="97.746" y="185.62" fill="#00f"/><path d="M113.844 197.762l-6.703 18.996M117.645 201.238l-5.364 15.196M133.648 194.066l-19.804 3.696M107.14 216.758l13.098 15.304M120.238 232.063l19.805-3.692M121.352 227.03l15.843-2.952M140.043 228.37l6.707-18.995M146.75 209.375l-13.102-15.31M141.836 210.926L131.36 198.68M133.648 194.066l6.707-18.996M140.355 175.07l-6.55-7.652" stroke-width="1.2" stroke="#000" stroke-miterlimit="10" fill="none"/><path d="M133.805 167.418l-6.55-7.652" stroke-width="1.2" stroke="#00f" stroke-miterlimit="10" fill="none"/><path d="M135.44 176.625l-5.237-6.125" stroke-width="1.2" stroke="#000" stroke-miterlimit="10" fill="none"/><path d="M130.203 170.5l-5.238-6.12" stroke-width="1.2" stroke="#00f" stroke-miterlimit="10" fill="none"/><path d="M140.355 175.07l9.903-1.843" stroke-width="1.2" stroke="#000" stroke-miterlimit="10" fill="none"/><path d="M150.258 173.227l9.898-1.848" stroke-width="1.2" stroke="#00f" stroke-miterlimit="10" fill="none"/><path d="M124.254 154.266h7v11h-7zm0 0" fill="#fff"/><use xlink:href="#a" x="124.254" y="162.929" fill="#00f"/><path d="M160.156 171.38l3.356-9.497" stroke-width="1.2" stroke="#00f" stroke-miterlimit="10" fill="none"/><path d="M163.512 161.883l3.35-9.5" stroke-width="1.2" stroke="#000" stroke-miterlimit="10" fill="none"/><path d="M153.156 165.88h14v11h-14zm0 0" fill="#fff"/><g fill="#00f"><use xlink:href="#a" x="153.156" y="174.542"/><use xlink:href="#c" x="160.134" y="174.542"/></g><path d="M166.863 152.383l19.805-3.692M186.668 148.69l6.703-18.995M193.37 129.695l-11.425-16.59M196.133 125.348l-9.145-13.274M212.68 123.953l-19.31 5.742M181.945 113.105l6.12-8" stroke-width="1.2" stroke="#000" stroke-miterlimit="10" fill="none"/><path d="M188.066 105.105l6.125-7.996M194.19 97.11l9.498 3.35" stroke-width="1.2" stroke="#00f" stroke-miterlimit="10" fill="none"/><path d="M203.688 100.46l9.5 3.353" stroke-width="1.2" stroke="#000" stroke-miterlimit="10" fill="none"/><path d="M187.19 91.61h14v11h-14zm0 0" fill="#fff"/><g fill="#00f"><use xlink:href="#a" x="187.191" y="100.272"/><use xlink:href="#c" x="194.169" y="100.272"/></g><path d="M213.188 103.813l-.508 20.14M217.875 105.945l-.406 16.114M230.883 94.184l-17.696 9.63M212.68 123.953l17.187 10.508M229.867 134.46l17.696-9.632M229.37 129.336l14.157-7.707M247.563 124.828l.507-20.137M247.563 124.828l8.593 5.254" stroke-width="1.2" stroke="#000" stroke-miterlimit="10" fill="none"/><path d="M256.156 130.082l8.594 5.254" stroke-width="1.2" stroke="#f00" stroke-miterlimit="10" fill="none"/><path d="M248.07 104.69l-17.187-10.506M243.88 107.684l-13.75-8.407" stroke-width="1.2" stroke="#000" stroke-miterlimit="10" fill="none"/><path d="M264.75 135.336l-.254 10.07" stroke-width="1.2" stroke="#f00" stroke-miterlimit="10" fill="none"/><path d="M264.496 145.406l-.254 10.07" stroke-width="1.2" stroke="#000" stroke-miterlimit="10" fill="none"/><path d="M260.75 129.836h8v11h-8zm0 0" fill="#fff"/><use xlink:href="#b" x="260.75" y="138.499" fill="#f00"/></g></svg>
